picto/information-framed.svg

<svg class="color-immutable" width="30" height="30" viewBox="0 0 30 30" fill="none" xmlns="http://www.w3.org/2000/svg"><path d="M30 0H0V30H30V0Z" fill="#2D327D"/><path d="M25.5 3C26.325 3 27 3.675 27 4.5V25.5C27 26.325 26.325 27 25.5 27H4.5C3.675 27 3 26.325 3 25.5V4.5C3 3.675 3.675 3 4.5 3H25.5ZM25.5 2.625H4.5C3.46613 2.625 2.625 3.46613 2.625 4.5V25.5C2.625 26.5339 3.46613 27.375 4.5 27.375H25.5C26.5339 27.375 27.375 26.5339 27.375 25.5V4.5C27.375 3.46613 26.5339 2.625 25.5 2.625Z" fill="white"/><path fill-rule="evenodd" clip-rule="evenodd" d="M15 6C10.0294 6 6 10.0294 6 15C6 19.9706 10.0294 24 15 24C19.9706 24 24 19.9706 24 15C24 10.0294 19.9706 6 15 6ZM15 7.3875C16.0459 7.3875 16.8938 8.23538 16.8938 9.28125C16.8938 10.3271 16.0459 11.175 15 11.175C13.9541 11.175 13.1063 10.3271 13.1063 9.28125C13.1063 8.23538 13.9541 7.3875 15 7.3875ZM17.8875 21.75H12.1125C11.9054 21.75 11.7375 21.5822 11.7375 21.375C11.7375 21.1679 11.9054 21 12.1125 21H13.3125V12.825H12.1125C11.9054 12.825 11.7375 12.6571 11.7375 12.45C11.7375 12.2429 11.9054 12.075 12.1125 12.075H16.725V21H17.8875C18.0946 21 18.2625 21.1679 18.2625 21.375C18.2625 21.5822 18.0946 21.75 17.8875 21.75Z" fill="white"/></svg>

<svg class="color-immutable" width="30" height="30" viewBox="0 0 30 30" fill="none" xmlns="http://www.w3.org/2000/svg"><g clip-path="url(#a)"><path d="M30 0H0v30h30V0Z" fill="#2D327D"/><path d="M25.5 3c.825 0 1.5.675 1.5 1.5v21c0 .825-.675 1.5-1.5 1.5h-21c-.825 0-1.5-.675-1.5-1.5v-21C3 3.675 3.675 3 4.5 3h21Zm0-.375h-21A1.877 1.877 0 0 0 2.625 4.5v21c0 1.034.841 1.875 1.875 1.875h21a1.877 1.877 0 0 0 1.875-1.875v-21A1.877 1.877 0 0 0 25.5 2.625Z" fill="#fff"/><path fill-rule="evenodd" clip-rule="evenodd" d="M15 6a9 9 0 1 0 0 18 9 9 0 0 0 0-18Zm0 1.388a1.894 1.894 0 1 1 0 3.787 1.894 1.894 0 0 1 0-3.788Zm2.887 14.362h-5.774a.375.375 0 1 1 0-.75h1.2v-8.175h-1.2a.375.375 0 0 1 0-.75h4.612V21h1.162a.375.375 0 0 1 0 .75Z" fill="#fff"/></g><defs><clipPath id="a"><path fill="#fff" d="M0 0h30v30H0z"/></clipPath></defs></svg>
